X: 14
T:Dorsetshire Hornpipe (#319), The
M:4/4
L:1/8
S:Wilson's Companion to the Ballroom 1816
R:Hornpipe
K:Bb
fe|dcde fedc|BABd F2 FE|DFBd edcB|A2 c2 c2 fe|
dcde fedc|BABd F2 FE|DFBd ceAc|B2 B2 B2:|
|:AB|cBAG FGAB|c2 c2 c2 Bc|dcBA GABc|d2 d2 d2 FE|
DF B2 EG c2|FB d2 GB e2|d2 cB FBAc|B2 B2 B2:||

